!!!!SEGMENT: pl-kk--kk-i-495_anonim--o-salutaris-hostia.krn
!!!cenid: 18xx:1335
!!!COM: Anonim
!!!COM-rismID: pe30004985
!!!CDT:
!!!CNT:
!!!OTL: O salutaris hostia
!!!PDT:
!!!AGN: Sacred
!!!SMS-siglum: PL-Kk
!!!SMS-shelfmark: Kk.I.495
!!!SMS-shelfwork: W
!!!SMS-variant:
!!!SMS-altvar:
!!!NIFC-rismSourceID: 1001136781
!!!NIFC-islandoraID: pl-kk:14581
!!!URL-pdf-islandora: https://repozytorium.nifc.pl/islandora/object/pl-kk%3A14581/datastream/PDF/view
!!!URL-scan: https://polish.musicsources.pl/pl/lokalizacje/galeria/rekopisy/6103 @EN{Scan on Polish Music Sources Website} @PL{Skany w portalu Dziedzictwo Muzyki Polskiej w otwartym dostępie}
!!!ONB-nifc:
!!!AIN: 1 empty 1 organ
!!!key:
**kern	**fba	**kern	**text
*part2	*part2	*part1	*part1
*staff2	*	*staff1	*staff1
*Iorgan	*	*Iempty	*
*I"Organo	*	*I"Baſso Solo	*
*I'org	*	*I'B	*
*group2	*	*group1	*
*clefF4	*	*clefF4	*
*k[]	*	*k[]	*
*a:	*	*a:	*
*M4/4	*	*M4/4	*
*met(c)	*	*met(c)	*
=1	=1	=1	=1
*2\right	*	*2\right	*
!	!	!LO:TX:a:B:t=Andante	!
2.A\	.	4r	.
.	.	4A\	O
.	.	4c\	ſa-
4G#X\	.	4B\	-lu-
=2	=2	=2	=2
4A\	.	4A\	-ta-
4G\	6	8G\L	-riſ
.	.	8A\J	.
2F\	7	4.F\	hos-
.	6	8F\	-ti-
=3	=3	=3	=3
8E\L	.	2E\	-a
8F\	.	.	.
8E\	.	.	.
8D\J	.	.	.
2C#X/	.	4r	.
.	.	4E\	o
=4	=4	=4	=4
4D\	.	4F\	ſa-
4AA#X/	.	4E\	-lu-
4D\	.	4d\	-ta-
4C\	.	8c\L	-ris
.	.	8d\J	.
!	!	!LO:LB:g=original	!
=5	=5	=5	=5
2BB/	.	4.B-X\	ho-
.	.	8B-\	-sti-
8AA/L	.	2A\	-a
8BB-X/	.	.	.
8AA/	.	.	.
8GG/J	.	.	.
=6	=6	=6	=6
2FF/	.	8r	.
.	.	8F\	quae
.	.	8A\	cae-
.	.	8B\	-li
!	!	!LO:TX:t=P:problem=mixed beam	!
4C/	.	8c\L	pan-
.	.	16C/L	.
.	.	16D/JJ	.
4r	.	8E/L	.
.	.	8C/J	.
!LO:LB:g=original	!	!	!
=7	=7	=7	=7
4D\	7	8D\L	.
.	.	16F\L	.
.	.	16E\JJ	.
4D\	6	16D\LL	.
.	.	16F\	.
.	.	16E\	.
.	.	16D\JJ	.
2C/	.	8E\L	.
.	.	16G\L	.
.	.	16F\JJ	.
.	.	16E\LL	.
.	.	16G\	.
.	.	16F\	.
.	.	16E\JJ	.
!	!	!LO:LB:g=original	!
=8	=8	=8	=8
2F\	.	8F\L	.
.	.	16A\L	.
.	.	16G\JJ	.
.	.	16F\LL	.
.	.	16G\	.
.	.	16A\	.
.	.	16B\JJ	.
4.E\	6	4c\	.
.	.	8E\L	-dis
8F\	6 3	8F\J	.
=9	=9	=9	=9
4G\	4	4.G\	Os-
.	3	.	.
4GG/	.	.	.
.	.	8G\	-ti-
8C/L	.	4C/	-um
8C/	.	.	.
8D/	.	4r	.
8F#X/J	.	.	.
=10	=10	=10	=10
2G\	.	8r	.
.	.	8G\	que
.	.	8B\	cae-
.	.	8c\	-lis
8D\L	.	4d\	pan-
8D\	.	.	.
8F\	.	4e\	-dis
8G\J	.	.	.
=11	=11	=11	=11
2A\	.	8r	.
.	.	8A\	quae
.	.	8c\	cae-
.	.	8A\	-li
2E#X\	.	8E\L	pan-
.	.	16G#X\L	.
!	!	!LO:TX:a:t=#	!
.	.	16F#y\JJ	.
.	.	16E\LL	.
.	.	16G#X\	.
!	!	!LO:TX:a:t=#	!
.	.	16F#y\	.
.	.	16E\JJ	.
!LO:LB:g=original	!	!LO:LB:g=original	!
=12	=12	=12	=12
8A\L	.	4A\	.
16c\L	.	.	.
16B\JJ	.	.	.
16G\LL	.	4r	.
16c\	.	.	.
16B\	.	.	.
16A\JJ	.	.	.
4B#X\	6	8B\L	.
.	.	16d\L	.
.	.	16c\JJ	.
4r	.	16B\LL	.
.	.	16d\	.
.	.	16c\	.
.	.	16B\JJ	.
=13	=13	=13	=13
8AA/L	.	4c\	.
16C/L	.	.	.
16BB/JJ	.	.	.
16AA/LL	.	4r	.
16C/	.	.	.
16BB/	.	.	.
16AA/JJ	.	.	.
2D\	.	8D\L	.
.	.	16F\L	.
.	.	16E\JJ	.
.	.	16D\LL	.
.	.	16F\	.
.	.	16E\	.
.	.	16D\JJ	.
=14	=14	=14	=14
4E\	3	4E\	.
.	#	.	.
4AA/	.	4A\	-diſ
2E\	4	4.E\	os-
.	3	8E\	-tiu-
=15	=15	=15	=15
1AA	.	1AA	-m
=16||	=16||	=16||	=16||
*M3/4	*	*M3/4	*
2FF/	.	2F\	Bel-
4r	.	4F\	-la
!	!	!LO:LB:g=original	!
=17	=17	=17	=17
2.C/	.	2c\	Bel-
.	.	4C/	-la
=18	=18	=18	=18
2D\	7	4d\	pra-
.	.	4d\	-e-
4GG/	.	4G\	-munt
!LO:LB:g=original	!	!	!
=19	=19	=19	=19
2.C/	.	4.c\	hos-
.	.	8c\	-ti-
.	.	4c\	-lia
=20	=20	=20	=20
!LO:TX:t=P:problem=mixed beam	!	!LO:TX:b:t=1	!
8C\L	.	2.r	.
8D\	.	.	.
8E\	.	.	.
8F\	.	.	.
8G\	.	.	.
8GG/J	.	.	.
=21	=21	=21	=21
2.C/	.	2c\	bel-
.	.	4C/	-la
=22	=22	=22	=22
2GG/	.	2G\	bel-
4GG/	.	4G\	-la
=23	=23	=23	=23
2AA/	7	4A\	pra-
.	.	4A\	-e-
4D\	.	4D\	-munt
!	!	!LO:LB:g=original	!
=24	=24	=24	=24
2.G\	.	4.G\	hos-
.	.	8G\	-ti-
.	.	4G\	-lia
=25	=25	=25	=25
2F#X\	6 4	4A\	da
.	.	4B\	.
8E\L	.	4c\	.
8G\J	.	.	.
=26	=26	=26	=26
4G\	.	2B\	ro-
4A\	6	.	.
4B\	.	4B\	-bur
=27	=27	=27	=27
4C/	.	4c\	da
4BB/	.	4d\	.
4C/	.	4e\	.
!LO:LB:g=original	!	!	!
=28	=28	=28	=28
4F\	.	4A\	ro-
4D\	.	4B\	.
4C\	.	4c\	-bur
=29	=29	=29	=29
8G\L	.	2G\	fer
8F\	.	.	.
8E\	.	.	.
8D\	.	.	.
!	!	!LO:TX:t=P:problem=przepełniona miara taktu, brak kreski taktowej	!
!	!	!LO:N:vis=2	!
8C\	.	[y4c\	au-
8D\J	.	.	.
=30	=30	=30-zz	=30
8E\L	.	4c\]yy	.
8F\J	.	.	.
4G\	.	4.G\	-xi-
4GG/	.	.	.
.	.	8G\	-li-
!	!	!LO:LB:g=original	!
=31	=31	=31	=31
4.C/	.	2C/	-um
8D\L	.	.	.
8E\	.	4r	.
8C\J	.	.	.
=32	=32	=32	=32
4.FF/	.	8F\L	Bel-
.	.	(16F\L	.
.	.	16G\JJ)	.
.	.	8F\L	.
8GG/L	.	8G\	.
8AA/	.	8A\	-la
8FF/J	.	8F\J	.
=33	=33	=33	=33
4.C\	.	2c\	bel-
8D\L	.	.	.
8E\	.	4C/	-la
8C\J	.	.	.
=34	=34	=34	=34
2F\	7	4d\	pra-
.	.	4d\	-e-
4GG/	.	4G\	-munt
!LO:PB:g=original	!	!	!
=35	=35	=35	=35
4C\	.	4.c\	hos-
4D\	.	.	.
.	.	8c\	-ti-
4E\	.	4c\	-lia
=36	=36	=36	=36
2.F\	.	(4F\	da
.	.	4G\	.
.	.	4A\)	.
=37	=37	=37	=37
2.C/	.	2G\	ro-
.	.	4G\	-bur
!	!	!LO:LB:g=original	!
=38	=38	=38	=38
2F\	.	(4A\	da
.	.	4B\	.
8E\L	.	4c\)	.
8F\J	.	.	.
=39	=39	=39	=39
2.G\	.	2B\	ro-
.	.	4B\	-bur
=40	=40	=40	=40
2C/	.	2c\	fer
8AA/L	.	[4A\	au-
8BB/J	.	.	.
=41	=41	=41	=41
8C/L	.	4A\]	.
8D/J	.	.	.
2E\	.	4.E\	-xi-
.	.	8E\	-li-
=42	=42	=42	=42
4AA/	#	2.A\	-um
4BB/	.	.	.
4C#X/	.	.	.
!LO:LB:g=original	!	!	!
=43	=43	=43	=43
4D\	.	2.d\	da
4E\	.	.	.
4F\	.	.	.
=44	=44	=44	=44
2E#X\	.	2d\	ro-
4AA/	.	4c\	-bur
=45	=45	=45	=45
2E\	.	2B\	fer
[>4AA/	.	[4A\	au-
!	!	!LO:LB:g=original	!
=46	=46	=46	=46
4AA/]	.	4A\]	.
2E\	4	4.E\	-xi-
.	3	8E\	-li-
=47	=47	=47	=47
1AA;	.	1AA;	-um
=48||	=48||	=48||	=48||
*M4/4	*	*M4/4	*
*met(c)	*	*met(c)	*
!LO:TX:b:t=Alleluia	!	!	!
4A\	.	4A\	Al-
4G#X\	.	4B\	-le-
4A\	.	4c\	-lu-
4E\	.	4G#X\	-ia
=49	=49	=49	=49
2AA/	.	8A\L	al-
.	.	8B\	.
.	.	8c\	.
.	.	8B\J	.
2AA/	.	8A\L	.
.	.	8G\	.
.	.	8F\	.
.	.	8E\J	.
!LO:LB:g=original	!	!	!
=50	=50	=50	=50
2D\	.	4D\	.
.	.	4F\	-le-
2E\	4	2E\	-lu-
.	3	.	.
!	!	!LO:LB:g=original	!
=51	=51	=51	=51
1AA	.	1AA 1A	-ia
==	==	==	==
*-	*-	*-	*-
!!!system-decoration: [(g1)][(g2)]
!!!RDF**kern: >= above
!!!RDF**kern: <= below
!!!ENC: Anna Matuszewska
!!!END: 2021-01-02
!!!ENC: Tomasz Grochalski
!!!END: 2020-12-30
!!!YEC: Copyright 2022 Narodowy Instytut Fryderyka Chopina (https://polishscores.org)
!!!YEM: Licence CC BY 4.0 (https://creativecommons.org/licenses/by/4.0)
